packages/icons/raw/imported/GenericDownload.svg

<svg width="32" height="32" viewBox="0 0 32 32" fill="none" xmlns="http://www.w3.org/2000/svg">
<path d="M16 6.5L16 21.1155M16 21.1155L11.6154 16.7308M16 21.1155L20.3847 16.7308M6.49994 18.923V22.5769C6.49994 24.1913 7.80865 25.5 9.42303 25.5H22.577C24.1913 25.5 25.5 24.1913 25.5 22.5769V18.923" stroke="black" stroke-linecap="round" stroke-linejoin="round"/>
</svg>

<svg width="32" height="32" fill="none" xmlns="http://www.w3.org/2000/svg"><path d="M16 6.5v14.616m0 0-4.385-4.385M16 21.115l4.385-4.384M6.5 18.923v3.654A2.923 2.923 0 0 0 9.423 25.5h13.154a2.923 2.923 0 0 0 2.923-2.923v-3.654" stroke="#000" stroke-linecap="round" stroke-linejoin="round"/></svg>
